X:1
T:Title
%%score { ( 1 3 ) | ( 2 4 ) }
L:1/8
M:3/4
K:Db
V:1 treble nm="Grand Piano"
V:3 treble 
V:2 bass 
V:4 bass 
V:1
 z2 z2[Q:1/4=100] D2 | F4 FF | F2 D2 E2 |[M:7/8] D2 C3 [GA]2 |[M:3/4] [Gc]4 [CB][CA] | %5
 [CE]2 [CB]2 [CA]2 |[M:2/4] [DF]4 |[M:1/4] [FA]2 |[M:3/4] [Af]4 [Ge][Fd] | d2 c2 B2 | %10
[M:7/8] [FA]2 F3 E2 | D2 d3 B2 | A2 F3 [CE]2 |[M:2/4] D4 |[M:1/4] de |[M:3/4] [Af]4 z2 | d4 z2 | %17
 F4 z2 |[M:2/4] D4 |[M:1/4] [Fd][Fd] |[M:3/4] d4 cB | [FA] F3 DE | F4 [CE]2 |[M:2/4] [A,D]4 |] %24
V:2
 z2 z2 [D,F,]2 | [D,A,D]4 [D,A,D][D,A,D] | [D,A,D]2 [D,F,]2 [D,G,A,]2 | %3
[M:7/8] [A,,F,A,]2 [A,,E,A,]3 [A,,E,]2 |[M:3/4] [A,,E,A,]4 [A,,A,][A,,A,] | %5
 [A,,A,]2 [A,,A,]2 [A,,A,]2 |[M:2/4] [D,A,]4 |[M:1/4] [D,D]2 |[M:3/4] [D,D]4 [D,A,][D,A,] | %9
 [G,B,G]2 [G,CG]2 [G,DG]2 |[M:7/8] [D,D]2 [D,A,D]3 [G,B,D]2 | [F,A,]2 [F,A,D]3[K:treble] [G,DG]2 | %12
 [A,DF]2[K:bass] [A,D]3 [A,,G,]2 |[M:2/4] [D,F,]4 |[M:1/4][K:treble] FG | %15
[M:3/4][K:bass] [D,D]D, D,2 A,,2 | D,D, D,2 F,G, | .D2 z2 z2 |[M:2/4] [F,A,]G, F,2 | %19
[M:1/4] [D,A,][D,A,_C] |[M:3/4] [G,B,G]4 [G,B,G][G,CG] | [D,D] [D,A,D]3 [F,A,][G,B,D] | %22
 [A,D]4 [A,,G,]2 |[M:2/4] [D,F,]4 |] %24
V:3
 x6 | x6 | x6 |[M:7/8] x7 |[M:3/4] x6 | x6 |[M:2/4] x4 |[M:1/4] x2 |[M:3/4] x6 | x6 |[M:7/8] x7 | %11
 x7 | x7 |[M:2/4] x4 |[M:1/4] x2 |[M:3/4] z D D2 [CGe]2 | [DF][EG] [FA]2 DE | z D D2 E2 | %18
[M:2/4] z A, A,2 |[M:1/4] x2 |[M:3/4] x6 | x6 | x6 |[M:2/4] x4 |] %24
V:4
 x6 | x6 | x6 |[M:7/8] x7 |[M:3/4] x6 | x6 |[M:2/4] x4 |[M:1/4] x2 |[M:3/4] x6 | x6 |[M:7/8] x7 | %11
 x5[K:treble] x2 | x2[K:bass] x5 |[M:2/4] x4 |[M:1/4][K:treble] x2 |[M:3/4][K:bass] x6 | x6 | %17
 A,4 [G,C]2 |[M:2/4] x4 |[M:1/4] x2 |[M:3/4] x6 | x6 | x6 |[M:2/4] x4 |] %24

